X:1
T:La mourisque
T:La mourisque
T:(Basse dansse 5)
T:Tielman Susato
C:Tielman Susato
%%score 1 2 3 4
L:1/8
Q:1/2=210
M:4/2
K:C
V:1 treble 
V:2 treble 
V:3 treble 
V:4 treble 
V:1
 E2 F2 G4 G4 G4 | G12 F4 | E4 C4 C4 D4 | B,8 G,8 | E2 F2 G4 G4 G4 | G12 F4 | E4 C4 C4 D4 | %7
 G,8 G,8 :: z4 E4 E4 C4 | C4 D4 E4 C4 | F4 D4 E4 C4 | C4 D4 B,8 | G,4 E4 E4 C4 | C4 D4 E4 C4 | %14
 F4 D4 E4 C4 | C4 D4 G,8 :| %16
V:2
 C2 A,2 C4 C4 C4 | C12 A,4 | C4 A,4 A,4 A,4 | G,8 B,8 | C2 A,2 C4 C4 C4 | C12 A,4 | %6
 C4 A,4 A,4 B,4 | C8 C8 :: z4 E,4 G,4 A,4 | A,4 E,4 G,4 C,4 | A,4 B,4 C4 C,4 | E,4 D,4 D,8 | %12
 D,4 E,4 E,4 A,4 | A,4 D,4 G,4 C,4 | A,4 B,4 C4 G,4 | A,4 G,4 E,8 :| %16
V:3
 G,2 F,2 E,4 E,4 E,4 | E,12 F,4 | C,4 E,4 E,4 F,4 | D,8 D,4 G,4 | G,2 F,2 E,4 E,4 E,4 | E,12 F,4 | %6
 C,6 D,2 E,2 C,2 G,4 | E,8 E,8 :: z4 G,4 E,4 E,4 | F,4 F,4 E,4 A,4 | F,4 G,4 E,4 E,4 | %11
 A,4 F,4 G,8 | G,4 G,4 E,4 E,4 | F,4 F,4 E,4 A,4 | F,4 G,4 E,4 E,4 | E,4 D,4 C,8 :| %16
V:4
 C,2 D,2 C,4 C,4 C,4 | C,12 D,4 | A,,4 A,,4 A,,4 D,4 | G,,8 G,,8 | C,2 D,2 C,4 C,4 C,4 | C,12 D,4 | %6
 A,,4 A,,4 A,,4 G,,4 | C,8 C,8 :: z4 C,4 C,4 A,,4 | A,,4 B,,4 C,4 A,,4 | D,4 G,,4 C,4 C,4 | %11
 A,,4 D,4 G,,8 | G,,4 C,4 C,4 A,,4 | A,,4 B,,4 C,4 A,,4 | D,4 G,,4 C,4 C,4 | A,,4 B,,4 C,8 :| %16

